frontend/public/svg/interface/pencil.svg

<svg width="151" height="143" viewBox="0 0 151 143" fill="none" xmlns="http://www.w3.org/2000/svg">
<g clip-path="url(#clip0)">
<path d="M0.829281 137.349C0.907504 136.776 1.01489 136.207 1.15105 135.645C3.18196 128.464 5.27638 121.3 7.23822 114.1C7.42208 113.269 7.77498 112.486 8.27484 111.799C8.77469 111.111 9.41067 110.535 10.143 110.106C10.8728 109.673 11.5443 109.149 12.1409 108.545C35.4936 84.8023 60.3992 62.7284 84.9502 40.2711C95.2535 30.8463 105.194 21.0228 115.461 11.5562C119.359 7.96168 123.653 4.78592 127.878 1.56652C130.164 -0.176752 131.535 -0.177334 133.655 1.57779C138.581 5.65416 143.476 9.77985 148.202 14.0853C151.281 16.8902 151.33 19.9691 148.419 22.9701C144.267 27.2493 139.909 31.3275 135.638 35.4919C135.181 35.9382 134.705 36.3657 134.269 36.837C118.794 53.6655 101.877 69.0055 85.0927 84.4665C73.018 95.5908 60.5237 106.26 48.2623 117.184C44.76 120.304 41.3915 123.576 38.0038 126.822C33.1115 131.595 27.1282 135.095 20.5764 137.015C15.5729 138.473 10.6447 140.198 5.61685 141.559C2.42328 142.428 0.648161 140.767 0.829281 137.349ZM117.043 19.8088C114.932 21.5596 112.916 23.1249 111.018 24.8226C87.807 45.5775 64.6018 66.3391 41.4021 87.1073C33.5449 94.1596 26.1194 101.681 19.166 109.631C18.2797 110.639 17.4805 111.724 16.5855 112.844L20.0884 116.657C55.3166 86.558 88.3218 54.2416 124.022 24.1629L117.043 19.8088ZM28.194 125.813C43.7897 114.724 123.904 39.9359 130.393 30.3888L127.966 27.5178C127.103 28.1912 126.41 28.6724 125.781 29.231C104.689 48.0306 83.5466 66.7741 62.5372 85.6674C50.0131 96.9303 37.8394 108.591 24.4396 118.839C23.9465 119.165 23.4338 119.46 22.9042 119.722L28.194 125.813ZM122.666 13.6982L135.363 25.4899L143.018 18.9294L131.142 7.25126L122.666 13.6982ZM11.0778 118.152C10.4337 120.938 9.91208 122.886 9.56602 124.865C9.45629 125.577 9.59527 126.304 9.95938 126.925C11.1115 128.699 12.4154 130.374 13.7642 132.23L20.1843 129.707L11.0778 118.152Z" fill="black"/>
</g>
<defs>
<clipPath id="clip0">
<rect width="150" height="142.308" fill="white" transform="translate(0.777344)"/>
</clipPath>
</defs>
</svg>

<svg xmlns="http://www.w3.org/2000/svg" width="151" height="143" fill="none" viewBox="0 0 151 143"><g clip-path="url(#a)"><path fill="#000" d="M.83 137.349q.117-.86.321-1.704c2.031-7.181 4.125-14.345 6.087-21.545a6.18 6.18 0 0 1 2.905-3.994 10 10 0 0 0 1.998-1.561c23.353-23.743 48.258-45.817 72.81-68.274 10.303-9.425 20.243-19.248 30.51-28.715 3.898-3.594 8.192-6.77 12.417-9.99 2.286-1.743 3.657-1.743 5.777.012 4.926 4.076 9.821 8.202 14.547 12.507 3.079 2.805 3.128 5.884.217 8.885-4.152 4.28-8.51 8.358-12.781 12.522-.457.446-.933.874-1.369 1.345-15.475 16.829-32.392 32.168-49.176 47.63-12.075 11.124-24.57 21.793-36.83 32.717-3.503 3.12-6.871 6.392-10.26 9.638a41.8 41.8 0 0 1-17.427 10.193c-5.003 1.458-9.931 3.183-14.96 4.544-3.193.869-4.968-.792-4.787-4.21m116.213-117.54c-2.111 1.75-4.127 3.316-6.025 5.014a166715 166715 0 0 0-69.616 62.284 262 262 0 0 0-22.236 22.524c-.886 1.008-1.686 2.093-2.58 3.213l3.502 3.813c35.229-30.099 68.234-62.415 103.934-92.494zM28.194 125.813c15.596-11.089 95.71-85.877 102.199-95.424l-2.427-2.871c-.863.673-1.556 1.154-2.185 1.713-21.092 18.8-42.234 37.543-63.244 56.436C50.013 96.93 37.84 108.591 24.44 118.84q-.741.49-1.536.883zm94.472-112.115 12.697 11.792 7.655-6.56-11.876-11.68zM11.078 118.152c-.644 2.786-1.166 4.734-1.512 6.713-.11.712.03 1.439.393 2.06 1.152 1.774 2.456 3.449 3.805 5.305l6.42-2.523z"/></g><defs><clipPath id="a"><path fill="#fff" d="M.777 0h150v142.308h-150z"/></clipPath></defs></svg>
